remix/Logos/open-source-fill.svg

<svg viewBox="0 0 24 24" fill="currentColor" xmlns="http://www.w3.org/2000/svg"><path d="M12.001 2C17.5238 2 22.001 6.47715 22.001 12C22.001 16.1302 19.497 19.6757 15.9243 21.201L13.4058 14.6514C14.3548 14.1476 15.001 13.1493 15.001 12C15.001 10.3431 13.6578 9 12.001 9C10.3441 9 9.00098 10.3431 9.00098 12C9.00098 13.1497 9.64766 14.1483 10.5971 14.6519L8.07863 21.2014C4.5054 19.6763 2.00098 16.1306 2.00098 12C2.00098 6.47715 6.47813 2 12.001 2Z"/></svg>

<svg viewBox="0 0 24 24" xmlns="http://www.w3.org/2000/svg"><path fill="none" d="M0 0h24v24H0Z"/><path d="M12 2c5.523 0 10 4.477 10 10 0 4.13-2.51 7.67-6.077 9.201l-2.52-6.55c.94-.51 1.59-1.51 1.59-2.651 0-1.657-1.343-3-3-3s-3 1.343-3 3c0 1.15.64 2.14 1.596 2.65l-2.52 6.55c-3.574-1.53-6.08-5.08-6.08-9.21 0-5.523 4.477-10 10-10Z"/></svg>
